X:415
%%etbk:tnset id:183,pos:9,rep:3x-STOP,ant:
%%etbk:wsite http://www.thesession.org/tunes/display/291
%%etbk:pldat 2016-06-23T18:53,2016-06-22T15:48,2016-06-21T15:48,2016-06-18T16:30,2016-06-16T18:52,2016-03-05T15:50,2016-02-27T14:53,2016-02-23T17:21,2016-02-10T16:39,2015-06-23T18:27,2015-06-18T18:48,2015-06-10T16:30,2015-03-11T17:01,2014-10-29T15:49,2014-10-27T19:10,2014-08-21T18:06,2014-08-18T18:29,2014-06-23T18:21,2014-06-03T15:40,2013-10-27T14:25
T: Maggie In The Woods
Z: Piano Box Version by Martin Fleischmann
H: Created 2013-02-19 /  Last Modified 2014-06-03
M: 2/4
L: 1/8
R: polka
K: Gmaj
!4!B/A/|:"G"!2!GD G!3!A|!2!B!4!e e!5!f/e/|!3!d!2!B !3!B/A/G/A/|"D"!3!B!2!A !3!A>A|
"G"!2!GD G!3!A|!2!B!4!e ef/e/| !3!d!2!B "D"!2!AB/A/|"G"!1!G2 G:|
d|:"em"!5!gf ed|ef !5!g>e| "G"!2!d!1!B !3!B/A/G/A/|"D"!3!B!2!A !1!A>!2!d|
"em"!5!gf ed|ef !5!g>e|"D"!2!d!1!B !2!AB|"G"!1!G2 G2:|


